X:0721
T:The Russian Tippet.
M:2/4
L:1/8
Q:1/2=86
N:Aird prints two sharps
I: :: ||
Z:Jack Campin * www.campin.me.uk * 2009
K:G
d2d2|B2G2|AGAd|B2G2|d2d2|B2G2|AGAd|G4  :|
EGdB|FAdB|GBed|cBAG|EGcA|FAdc|BgAf|g2g2:|
<end>
<start>
